packages/core/src/svgs/tokens/branded/BELT.svg

<svg width="24" height="24" viewBox="0 0 24 24" fill="none" xmlns="http://www.w3.org/2000/svg">
<path fill-rule="evenodd" clip-rule="evenodd" d="M6.00008 21.02V14.6667H10.0001V18.2332C10.0001 18.4733 10.1935 18.6666 10.4268 18.6666H15.3601C16.4468 18.6666 17.3334 17.3867 17.3334 16.2799C17.3334 15.18 16.4267 14.0133 15.3333 14.0133H10.6667V10H15.3467C16.4468 10 17.3334 8.81999 17.3334 7.71333C17.3334 6.6 16.4468 5.33333 15.3467 5.33333H10.4268C10.3129 5.33509 10.2045 5.38151 10.1245 5.46258C10.0447 5.54366 10.0001 5.65289 10.0001 5.76666V9.33329H6.00008V2.98C6.00008 2.44 6.43341 2 6.96675 2H15.6068C18.7734 2 21.3334 5.25333 21.3334 8.44666C21.2867 9.17992 20.9 10.9 19.68 11.88C20.2333 12.46 21.3334 14.0799 21.3334 15.8666C21.3334 18.8866 18.9134 22 15.9201 22H6.96675C6.43341 22 6.00008 21.5599 6.00008 21.02ZM14.8134 11.9799C14.8134 12.2467 14.5933 12.4666 14.3267 12.4666C14.1976 12.4666 14.0739 12.4153 13.9826 12.3242C13.8913 12.2328 13.84 12.109 13.84 11.9799C13.84 11.7133 14.0601 11.4866 14.3267 11.4866C14.5933 11.4866 14.8134 11.7066 14.8134 11.9799ZM12.8867 11.9799C12.8867 12.2467 12.6733 12.4666 12.4067 12.4666C12.2776 12.4666 12.1539 12.4153 12.0626 12.3242C11.9713 12.2328 11.9201 12.109 11.9201 11.9799C11.9201 11.7133 12.1401 11.4866 12.4067 11.4866C12.6733 11.4866 12.8867 11.7066 12.8867 11.9799ZM5.3334 14V10H4.82674C3.84674 10 2.66675 10.8934 2.66675 12C2.66675 13.1066 3.84674 14 4.82674 14H5.3334ZM6.22674 10C6.10007 10 6.00008 10.1199 6.00008 10.2666V13.7333C6.00008 13.88 6.10007 14 6.22674 14H9.77346C9.90008 14 10.0001 13.88 10.0001 13.7333V10.2666C10.0001 10.1199 9.90008 10 9.77346 10H6.22674ZM6.84008 10.6667C6.74674 10.6667 6.66674 10.7534 6.66674 10.8666V13.1334C6.66674 13.2466 6.74674 13.3332 6.84008 13.3332H9.16006C9.25339 13.3332 9.33339 13.2466 9.33339 13.1334V12.4334H8.27339C8.06674 12.4334 7.90008 12.2333 7.90008 11.9933C7.90008 11.7466 8.06674 11.5534 8.27339 11.5534H9.33339V10.8599C9.33339 10.7534 9.25339 10.6667 9.16006 10.6667H6.84008Z" fill="#FCB251"/>
</svg>

<svg xmlns="http://www.w3.org/2000/svg" width="24" height="24" fill="none" viewBox="0 0 24 24">
    <path fill="#FCB251" fill-rule="evenodd" d="M6 21.02v-6.353h4v3.566c0 .24.194.434.427.434h4.933c1.087 0 1.973-1.28 1.973-2.387 0-1.1-.906-2.267-2-2.267h-4.666V10h4.68c1.1 0 1.986-1.18 1.986-2.287 0-1.113-.886-2.38-1.986-2.38h-4.92a.434.434 0 0 0-.427.434v3.566H6V2.98c0-.54.433-.98.967-.98h8.64c3.166 0 5.726 3.253 5.726 6.447-.046.733-.433 2.453-1.653 3.433.553.58 1.653 2.2 1.653 3.987 0 3.02-2.42 6.133-5.413 6.133H6.967A.975.975 0 0 1 6 21.02m8.813-9.04a.487.487 0 0 1-.973 0c0-.267.22-.493.487-.493a.49.49 0 0 1 .486.493m-1.926 0a.484.484 0 1 1-.967 0c0-.267.22-.493.487-.493.266 0 .48.22.48.493M5.333 14v-4h-.506c-.98 0-2.16.893-2.16 2s1.18 2 2.16 2zm.894-4C6.1 10 6 10.12 6 10.267v3.466c0 .147.1.267.227.267h3.546c.127 0 .227-.12.227-.267v-3.466c0-.147-.1-.267-.227-.267zm.613.667c-.093 0-.173.086-.173.2v2.266c0 .114.08.2.173.2h2.32c.093 0 .173-.086.173-.2v-.7h-1.06c-.206 0-.373-.2-.373-.44 0-.246.167-.44.373-.44h1.06v-.693c0-.107-.08-.193-.173-.193z" clip-rule="evenodd"/>
</svg>
